X:197
T:Burlum's Reel. Ru1.197
%%VWML:RutherfordVol1-2248-p79-0p79
Z:Transcription by Village Music Project, Steve Mansfield July 2015
F:http://www.village-music-project.org.uk/
F:http://www.vwml.org/record/RutherfordVol1/2248/p79
L:1/8
R:Reel
W:Foot it all Four & Hands across .| The same Back
W:Again :| Cross over two Couple .|. Lead up to the
W:Top foot it & Cast :||: Foot it Corners & turn .||
W:Foot it the other Corners & turn :| Lead out
W:Each sides and turn.
Q:2/4=60
K:G
GBdB A/A/Ae2 | GB de/f/ gdBG | ceBg A/A/Ae2 | d/c/B/A/ GB d2e2 :|
|:dBgB A/A/Ae2 | dBgB dega | g/f/e/f/ gB A/A/Ae2 | d2e/f/g/B/ d2e2 :|]
T:North Reel. Ru1.198, The
B:Rutherford's Country Dances Vol 1, 1756
Z:village music project, Steve Mansfield July 2015
M:C|
L:1/8
R:Reel
W:The first Man foots it to his Partner & turns
W:her & Leaves her in his Place .| foot it
W:Sides & turn :| Cast down two Couple .|.
W:Lead up to the Top foot it & Cast off :|
Q:2/4=60
K:G
|:g | G/G/G GB GABG | A/A/A BG BABg | G/G/G GB GABG | e/f/g d>B d2d :|
|: g | (e/f/g) dB cAAg | e/f/g dB dega | g/f/e/f/ gB BABg | (e/f/g) dB d2g :|]
